X: 14037
T: The HILLTOP REEL
C: Bob McQuillen Feb'09
B: Bob's Note Book 14 #37
%R: reel
%D:2009
Z: 2020 John Chambers <jc:trillian.mit.edu>
M: C
L: 1/8
K: A
AB \
| c2cA B2AG | EDEG A2AB | c2AG EGAB | cecA G2AB |
| c2Ac B2AG | EDEG AGcd | egag ecAc | B2A2 A2  :|
|: cd \
| e2ga g2ed | cdec A2cd | e2ga g2ed | cecA G2cd |
| egag ecAG | cecA GAcd | ecAc dcBd | c2A2 A2  :|
%%begintext align
%% Cindy and Bob Porter
%% raise beef cattle on their "Hilltop Farm" in
%% Claremont. They're lovely folks, and it's always
%% such a treat when some of their Hilltop Steaks land
%% on your plate. Yummy stuff! And besides that, they
%% have a real sweet fiddle-playing daughter named 'Sarah'
%% that I like a lot. Hi Sarah! :-)
%%endtext

%%sep 1 1 500

%%sep 1 1 500

